X:21018 
T:BRIDAL JIG, The  
B:DMI.0310 
Z:Nordberg/Black
N:AA-BB-A in source
R:jig
%Q:1/4=160
M:6/8
L:1/8
K:G
D|G3 BGB|def gdB|ecA dBG|FAG FED|
G2G BGB|def gdB|ecA dBG|FEF G2:|
B|Bee edB|def g2a|bgb afa|geg fdB|
Bee edB|def g2a|bgb afa|1 gee e2:|\
[2 g2f g3|]

%%%

